resources/icons/16px/layer-outline.svg

<?xml version="1.0" encoding="UTF-8"?>
<svg width="16px" height="16px" viewBox="0 0 16 16" version="1.1" xmlns="http://www.w3.org/2000/svg" xmlns:xlink="http://www.w3.org/1999/xlink">
    <path fill-rule="evenodd" d="M7.50386106,3.13175686 L0.503861062,7.13175686 C-0.167953687,7.515651 -0.167953687,8.484349 0.503861062,8.86824314 L7.50386106,12.8682431 C7.81129373,13.043919 8.18870627,13.043919 8.49613894,12.8682431 L15.4961389,8.86824314 C16.1679537,8.484349 16.1679537,7.515651 15.4961389,7.13175686 L8.49613894,3.13175686 C8.18870627,2.95608105 7.81129373,2.95608105 7.50386106,3.13175686 Z M8,5.152 L12.983,8 L8,10.847 L3.016,8 L8,5.152 Z"></path>
</svg>

<svg xmlns="http://www.w3.org/2000/svg" viewBox="0 0 16 16">
  <path d="m7.504 3.132-7 4a1 1 0 0 0 0 1.736l7 4a1 1 0 0 0 .992 0l7-4a1 1 0 0 0 0-1.736l-7-4a1 1 0 0 0-.992 0M8 5.152 12.983 8 8 10.847 3.016 8z"/>
</svg>
